X:1
T:Wenn wir in höchsten Nöthen sein
T:Wenn wir in höchsten Nöthen sein
T:When We Are in Dire Straits
T:(Wenn wir in höchsten Nöthen sein) from "Orgelbüchlein" (BWV 641) Arrangement for mixed Woodwind Quartet 
T:Johann Sebastian Bach (1685.1750) arr. Felix Scharpf 
T:twoflutes 2014 rev. 2020 / Felix Scharpf
T:twoflutes 2014 rev. 2020 / Felix Scharpf
T:twoflutes 2014 rev. 2020 / Felix Scharpf
T:twoflutes 2014 rev. 2020 / Felix Scharpf
C:Johann Sebastian Bach (1685.1750)
Z:twoflutes 2014 rev. 2020 / Felix Scharpf
%%score [ 1 2 3 4 ]
L:1/8
Q:1/8=56
M:4/4
K:G
V:1 treble nm="Oboe" snm="Ob."
V:2 treble transpose=-5 nm="Altflöte in G" snm="Afl."
V:3 alto nm="Fagott I" snm="Fgt. I"
V:4 bass nm="Fagott II" snm="Fgt. II"
V:1
!mp! (G2- G/4A/4B/4A/4G/A/4F/4)({F} MG-G/4A/4G/4A/4) (PA3/2G/4A/4) | %1
({A} B-B/4e/4d/4e/4) (A/4B/4A/4B/4PB/A/4B/4) (c-c/4a/4g/4a/4) (PB-B/4g/4f/4g/4) | %2
 (A/4G/4A/4B/4c/4B/4e/4d/4) (c/<B/PA/G/) (!fermata!G/4D/4E/4F/4G/(B/4A/4)) (MB/4c/4B/4A/4G/4B/4A/4c/8B/8) | %3
 (Mc-c/4d/4c/4B/4) (MB/>c/d/4c/4d/4e/4) (A3/2c/4B/4)({A} G-G/4F/4E/4F/4) | %4
 (PF-F/4G/4F/4G/4) (PG3/2F/4G/4){!fermata!G} !fermata!MA2 (d/4e/4d/4c/4B/4A/4B/4G/4) | %5
 (Mc-c/4d/8c/8B/4c/8d/8) (PB>A) (A/B/4A/4G/4F/4G/)({G} PF-F/4G/8F/8E/4G/8F/8) | %6
 (MG/A/4G/4F/4G/4A/4B/4) (PE3/2D/4E/4) !fermata!D2 (B-B/4d/4c/4B/8e/8) | %7
({d} c-c/4e/4^d/4e/4) (PB3/2A/4B/4) (A-A/4c/4B/4A/8=d/8) .d/G(B/4A/4) | %8
({A} MB/>c/d/4e/4f/4g/4) (B/A/)(PA/G/4A/4)[Q:1/8=50] !fermata!MG4[Q:1/8=40][Q:1/8=30] |] %9
V:2
[K:C] z EEF G2 AB | cEAG FG G2 | AFGF E(G/B/ c2) | z ccB APBcE | FGGA BBBc | dB G2- G4- | %6
 GGG^F Gddc | cB c2- cB cB | cGGF (FE/D/ !fermata!E2) |] %9
V:3
 z G,G,A, B,2 ^C^D | EG,G,F, E,A,A,G,- | G, G,2 F, G,(B,/C/ D2) | G,>A, B,2 CD D2 | %4
 z CC_B, A,2 =B,2 | z A,A,G, F,B, A,2 | G,A,B,A, F,2 G,2 | A,2 (B,C/D/ E)D DC | %8
 (B,/A,/G,/A,/) (F,E,/F,/) (G,D,/C,/ !fermata!D,2) |] %9
V:4
 z4 z G,G,F, | E,D,C,D, A,,F,,G,,B,, | C,A,,D,D,, G,,G,G,F, | E,E,,E,D, C,CCG, | %4
 A,D,G,G,, D,D,,D,,E,, | F,,D,, G,,2 D,,D,D,^C, | B,,A,,G,,A,, D,,2 z2 | z E,E,D, C,2 B,,A,, | %8
 (G,,B,,/C,/) PD,D,, !fermata!G,,4 |] %9

